resources/icons/coins.svg

<svg viewBox="0 0 20 20" xmlns="http://www.w3.org/2000/svg">
<path fill-rule="evenodd" clip-rule="evenodd" d="M5 13.25C5 12.8358 5.33579 12.5 5.75 12.5H16.25C16.6642 12.5 17 12.8358 17 13.25V16.25C17 16.6642 16.6642 17 16.25 17H5.75C5.33579 17 5 16.6642 5 16.25V13.25Z" stroke="currentColor" stroke-width="2" stroke-linecap="round" stroke-linejoin="round" fill="none"/>
<path fill-rule="evenodd" clip-rule="evenodd" d="M6.5 8.75C6.5 8.33579 6.83579 8 7.25 8H17.75C18.1642 8 18.5 8.33579 18.5 8.75V11.75C18.5 12.1642 18.1642 12.5 17.75 12.5H7.25C6.83579 12.5 6.5 12.1642 6.5 11.75V8.75Z" stroke="currentColor" stroke-width="2" stroke-linecap="round" stroke-linejoin="round" fill="none"/>
<path fill-rule="evenodd" clip-rule="evenodd" d="M2 4.25C2 3.83579 2.33579 3.5 2.75 3.5H13.25C13.6642 3.5 14 3.83579 14 4.25V7.25C14 7.66421 13.6642 8 13.25 8H2.75C2.33579 8 2 7.66421 2 7.25V4.25Z" stroke="currentColor" stroke-width="2" stroke-linecap="round" stroke-linejoin="round" fill="none"/>
</svg>

<svg viewBox="0 0 20 20" xmlns="http://www.w3.org/2000/svg"><path clip-rule="evenodd" d="M5 13.25a.75.75 0 01.75-.75h10.5a.75.75 0 01.75.75v3a.75.75 0 01-.75.75H5.75a.75.75 0 01-.75-.75v-3zM6.5 8.75A.75.75 0 017.25 8h10.5a.75.75 0 01.75.75v3a.75.75 0 01-.75.75H7.25a.75.75 0 01-.75-.75v-3zM2 4.25a.75.75 0 01.75-.75h10.5a.75.75 0 01.75.75v3a.75.75 0 01-.75.75H2.75A.75.75 0 012 7.25v-3z" stroke="currentColor" stroke-width="2" stroke-linecap="round" stroke-linejoin="round" fill="none"/></svg>
